X: 75
T: POLKA: Bridgie Con Matt's
C: C: Trad.; S: Julia & Billy Clifford
C: Set Leaders: Olya, Anton
Z: Anton Zille ed., Oleg Naumov arr.; Bregolas at The Session
N: https://thesession.org/members/26966/sets/71310
R: Polka
M: 2/4
L: 1/8
Q: 1/4=140
K: Gmaj
|:"G"GB BA/c/|"G"BG G>D|"C"GB B/c/d/B/|"D"AD FA|
"G"GB BA/c/|"G"BG G/A/B/c/|"C"dd B/c/d/B/|"D"AD FA :||
|:"Em"Be ef/e/|d/e/f/a/ g2|"C"Be ed/B/|"D"AD FA |
"Em"Be ef/e/|"D/F#"d/e/f/a/ g2|"G"g/a/g/e/ "C"d/e/d/B/|"D"AD "(D/F#)"FA :||

